examples/graphics/lutFilterExample/bin/data/customLut.cube
TITLE "Pastel"
LUT_3D_SIZE 8
DOMAIN_MIN 0.000000 0.000000 0.000000
DOMAIN_MAX 0.903226 0.903226 0.903226
0.300000 0.300000 0.300000
0.350284 0.311574 0.311574
0.400568 0.323148 0.323148
0.450852 0.334723 0.334723
0.501135 0.346297 0.346297
0.551419 0.357871 0.357871
0.601703 0.369445 0.369445
0.651987 0.381019 0.381019
0.322723 0.361432 0.322723
0.373006 0.373006 0.334297
0.423290 0.384581 0.345871
0.473574 0.396155 0.357445
0.523858 0.407729 0.369019
0.574142 0.419303 0.380594
0.624426 0.430877 0.392168
0.674710 0.442452 0.403742
0.345445 0.422865 0.345445
0.395729 0.434439 0.357019
0.446013 0.446013 0.368594
0.496297 0.457587 0.380168
0.546581 0.469161 0.391742
0.596865 0.480735 0.403316
0.647148 0.492310 0.414890
0.697432 0.503884 0.426465
0.368168 0.484297 0.368168
0.418452 0.495871 0.379742
0.468735 0.507445 0.391316
0.519019 0.519019 0.402890
0.569303 0.530594 0.414465
0.619587 0.542168 0.426039
0.669871 0.553742 0.437613
0.720155 0.565316 0.449187
0.390890 0.545729 0.390890
0.441174 0.557303 0.402465
0.491458 0.568877 0.414039
0.541742 0.580452 0.425613
0.592026 0.592026 0.437187
0.642310 0.603600 0.448761
0.692594 0.615174 0.460335
0.742877 0.626748 0.471910
0.413613 0.607161 0.413613
0.463897 0.618735 0.425187
0.514181 0.630310 0.436761
0.564465 0.641884 0.448335
0.614748 0.653458 0.459910
0.665032 0.665032 0.471484
0.715316 0.676606 0.483058
0.765600 0.688181 0.494632
0.436335 0.668594 0.436335
0.486619 0.680168 0.447910
0.536903 0.691742 0.459484
0.587187 0.703316 0.471058
0.637471 0.714890 0.482632
0.687755 0.726465 0.494206
0.738039 0.738039 0.505781
0.788323 0.749613 0.517355
0.459058 0.730026 0.459058
0.509342 0.741600 0.470632
0.559626 0.753174 0.482206
0.609910 0.764748 0.493781
0.660194 0.776323 0.505355
0.710477 0.787897 0.516929
0.760761 0.799471 0.528503
0.811045 0.811045 0.540077
0.304413 0.304413 0.343123
0.354697 0.315987 0.354697
0.404981 0.327561 0.366271
0.455265 0.339135 0.377845
0.505548 0.350710 0.389419
0.555832 0.362284 0.400994
0.606116 0.373858 0.412568
0.656400 0.385432 0.424142
0.327135 0.365845 0.365845
0.377419 0.377419 0.377419
0.427703 0.388994 0.388994
0.477987 0.400568 0.400568
0.528271 0.412142 0.412142
0.578555 0.423716 0.423716
0.628839 0.435290 0.435290
0.679123 0.446865 0.446865
0.349858 0.427277 0.388568
0.400142 0.438852 0.400142
0.450426 0.450426 0.411716
0.500710 0.462000 0.423290
0.550994 0.473574 0.434865
0.601277 0.485148 0.446439
0.651561 0.496723 0.458013
0.701845 0.508297 0.469587
0.372581 0.488710 0.411290
0.422865 0.500284 0.422865
0.473148 0.511858 0.434439
0.523432 0.523432 0.446013
0.573716 0.535006 0.457587
0.624000 0.546581 0.469161
0.674284 0.558155 0.480735
0.724568 0.569729 0.492310
0.395303 0.550142 0.434013
0.445587 0.561716 0.445587
0.495871 0.573290 0.457161
0.546155 0.584865 0.468735
0.596439 0.596439 0.480310
0.646723 0.608013 0.491884
0.697006 0.619587 0.503458
0.747290 0.631161 0.515032
0.418026 0.611574 0.456735
0.468310 0.623148 0.468310
0.518594 0.634723 0.479884
0.568877 0.646297 0.491458
0.619161 0.657871 0.503032
0.669445 0.669445 0.514606
0.719729 0.681019 0.526181
0.770013 0.692594 0.537755
0.440748 0.673006 0.479458
0.491032 0.684581 0.491032
0.541316 0.696155 0.502606
0.591600 0.707729 0.514181
0.641884 0.719303 0.525755
0.692168 0.730877 0.537329
0.742452 0.742452 0.548903
0.792735 0.754026 0.560477
0.463471 0.734439 0.502181
0.513755 0.746013 0.513755
0.564039 0.757587 0.525329
0.614323 0.769161 0.536903
0.664606 0.780735 0.548477
0.714890 0.792310 0.560052
0.765174 0.803884 0.571626
0.815458 0.815458 0.583200
0.308826 0.308826 0.386245
0.359110 0.320400 0.397819
0.409394 0.331974 0.409394
0.459677 0.343548 0.420968
0.509961 0.355123 0.432542
0.560245 0.366697 0.444116
0.610529 0.378271 0.455690
0.660813 0.389845 0.467265
0.331548 0.370258 0.408968
0.381832 0.381832 0.420542
0.432116 0.393406 0.432116
0.482400 0.404981 0.443690
0.532684 0.416555 0.455265
0.582968 0.428129 0.466839
0.633252 0.439703 0.478413
0.683535 0.451277 0.489987
0.354271 0.431690 0.431690
0.404555 0.443265 0.443265
0.454839 0.454839 0.454839
0.505123 0.466413 0.466413
0.555406 0.477987 0.477987
0.605690 0.489561 0.489561
0.655974 0.501135 0.501135
0.706258 0.512710 0.512710
0.376994 0.493123 0.454413
0.427277 0.504697 0.465987
0.477561 0.516271 0.477561
0.527845 0.527845 0.489135
0.578129 0.539419 0.500710
0.628413 0.550994 0.512284
0.678697 0.562568 0.523858
0.728981 0.574142 0.535432
0.399716 0.554555 0.477135
0.450000 0.566129 0.488710
0.500284 0.577703 0.500284
0.550568 0.589277 0.511858
0.600852 0.600852 0.523432
0.651135 0.612426 0.535006
0.701419 0.624000 0.546581
0.751703 0.635574 0.558155
0.422439 0.615987 0.499858
0.472723 0.627561 0.511432
0.523006 0.639135 0.523006
0.573290 0.650710 0.534581
0.623574 0.662284 0.546155
0.673858 0.673858 0.557729
0.724142 0.685432 0.569303
0.774426 0.697006 0.580877
0.445161 0.677419 0.522581
0.495445 0.688994 0.534155
0.545729 0.700568 0.545729
0.596013 0.712142 0.557303
0.646297 0.723716 0.568877
0.696581 0.735290 0.580452
0.746865 0.746865 0.592026
0.797148 0.758439 0.603600
0.467884 0.738852 0.545303
0.518168 0.750426 0.556877
0.568452 0.762000 0.568452
0.618735 0.773574 0.580026
0.669019 0.785148 0.591600
0.719303 0.796723 0.603174
0.769587 0.808297 0.614748
0.819871 0.819871 0.626323
0.313239 0.313239 0.429368
0.363523 0.324813 0.440942
0.413806 0.336387 0.452516
0.464090 0.347961 0.464090
0.514374 0.359535 0.475665
0.564658 0.371110 0.487239
0.614942 0.382684 0.498813
0.665226 0.394258 0.510387
0.335961 0.374671 0.452090
0.386245 0.386245 0.463665
0.436529 0.397819 0.475239
0.486813 0.409394 0.486813
0.537097 0.420968 0.498387
0.587381 0.432542 0.509961
0.637665 0.444116 0.521535
0.687948 0.455690 0.533110
0.358684 0.436103 0.474813
0.408968 0.447677 0.486387
0.459252 0.459252 0.497961
0.509535 0.470826 0.509535
0.559819 0.482400 0.521110
0.610103 0.493974 0.532684
0.660387 0.505548 0.544258
0.710671 0.517123 0.555832
0.381406 0.497535 0.497535
0.431690 0.509110 0.509110
0.481974 0.520684 0.520684
0.532258 0.532258 0.532258
0.582542 0.543832 0.543832
0.632826 0.555406 0.555406
0.683110 0.566981 0.566981
0.733394 0.578555 0.578555
0.404129 0.558968 0.520258
0.454413 0.570542 0.531832
0.504697 0.582116 0.543406
0.554981 0.593690 0.554981
0.605265 0.605265 0.566555
0.655548 0.616839 0.578129
0.705832 0.628413 0.589703
0.756116 0.639987 0.601277
0.426852 0.620400 0.542981
0.477135 0.631974 0.554555
0.527419 0.643548 0.566129
0.577703 0.655123 0.577703
0.627987 0.666697 0.589277
0.678271 0.678271 0.600852
0.728555 0.689845 0.612426
0.778839 0.701419 0.624000
0.449574 0.681832 0.565703
0.499858 0.693406 0.577277
0.550142 0.704981 0.588852
0.600426 0.716555 0.600426
0.650710 0.728129 0.612000
0.700994 0.739703 0.623574
0.751277 0.751277 0.635148
0.801561 0.762852 0.646723
0.472297 0.743265 0.588426
0.522581 0.754839 0.600000
0.572865 0.766413 0.611574
0.623148 0.777987 0.623148
0.673432 0.789561 0.634723
0.723716 0.801135 0.646297
0.774000 0.812710 0.657871
0.824284 0.824284 0.669445
0.317652 0.317652 0.472490
0.367935 0.329226 0.484065
0.418219 0.340800 0.495639
0.468503 0.352374 0.507213
0.518787 0.363948 0.518787
0.569071 0.375523 0.530361
0.619355 0.387097 0.541935
0.669639 0.398671 0.553510
0.340374 0.379084 0.495213
0.390658 0.390658 0.506787
0.440942 0.402232 0.518361
0.491226 0.413806 0.529935
0.541510 0.425381 0.541510
0.591794 0.436955 0.553084
0.642077 0.448529 0.564658
0.692361 0.460103 0.576232
0.363097 0.440516 0.517935
0.413381 0.452090 0.529510
0.463665 0.463665 0.541084
0.513948 0.475239 0.552658
0.564232 0.486813 0.564232
0.614516 0.498387 0.575806
0.664800 0.509961 0.587381
0.715084 0.521535 0.598955
0.385819 0.501948 0.540658
0.436103 0.513523 0.552232
0.486387 0.525097 0.563806
0.536671 0.536671 0.575381
0.586955 0.548245 0.586955
0.637239 0.559819 0.598529
0.687523 0.571394 0.610103
0.737806 0.582968 0.621677
0.408542 0.563381 0.563381
0.458826 0.574955 0.574955
0.509110 0.586529 0.586529
0.559394 0.598103 0.598103
0.609677 0.609677 0.609677
0.659961 0.621252 0.621252
0.710245 0.632826 0.632826
0.760529 0.644400 0.644400
0.431265 0.624813 0.586103
0.481548 0.636387 0.597677
0.531832 0.647961 0.609252
0.582116 0.659535 0.620826
0.632400 0.671110 0.632400
0.682684 0.682684 0.643974
0.732968 0.694258 0.655548
0.783252 0.705832 0.667123
0.453987 0.686245 0.608826
0.504271 0.697819 0.620400
0.554555 0.709394 0.631974
0.604839 0.720968 0.643548
0.655123 0.732542 0.655123
0.705406 0.744116 0.666697
0.755690 0.755690 0.678271
0.805974 0.767265 0.689845
0.476710 0.747677 0.631548
0.526994 0.759252 0.643123
0.577277 0.770826 0.654697
0.627561 0.782400 0.666271
0.677845 0.793974 0.677845
0.728129 0.805548 0.689419
0.778413 0.817123 0.700994
0.828697 0.828697 0.712568
0.322065 0.322065 0.515613
0.372348 0.333639 0.527187
0.422632 0.345213 0.538761
0.472916 0.356787 0.550335
0.523200 0.368361 0.561910
0.573484 0.379935 0.573484
0.623768 0.391510 0.585058
0.674052 0.403084 0.596632
0.344787 0.383497 0.538335
0.395071 0.395071 0.549910
0.445355 0.406645 0.561484
0.495639 0.418219 0.573058
0.545923 0.429794 0.584632
0.596206 0.441368 0.596206
0.646490 0.452942 0.607781
0.696774 0.464516 0.619355
0.367510 0.444929 0.561058
0.417794 0.456503 0.572632
0.468077 0.468077 0.584206
0.518361 0.479652 0.595781
0.568645 0.491226 0.607355
0.618929 0.502800 0.618929
0.669213 0.514374 0.630503
0.719497 0.525948 0.642077
0.390232 0.506361 0.583781
0.440516 0.517935 0.595355
0.490800 0.529510 0.606929
0.541084 0.541084 0.618503
0.591368 0.552658 0.630077
0.641652 0.564232 0.641652
0.691935 0.575806 0.653226
0.742219 0.587381 0.664800
0.412955 0.567794 0.606503
0.463239 0.579368 0.618077
0.513523 0.590942 0.629652
0.563806 0.602516 0.641226
0.614090 0.614090 0.652800
0.664374 0.625665 0.664374
0.714658 0.637239 0.675948
0.764942 0.648813 0.687523
0.435677 0.629226 0.629226
0.485961 0.640800 0.640800
0.536245 0.652374 0.652374
0.586529 0.663948 0.663948
0.636813 0.675523 0.675523
0.687097 0.687097 0.687097
0.737381 0.698671 0.698671
0.787665 0.710245 0.710245
0.458400 0.690658 0.651948
0.508684 0.702232 0.663523
0.558968 0.713806 0.675097
0.609252 0.725381 0.686671
0.659535 0.736955 0.698245
0.709819 0.748529 0.709819
0.760103 0.760103 0.721394
0.810387 0.771677 0.732968
0.481123 0.752090 0.674671
0.531406 0.763665 0.686245
0.581690 0.775239 0.697819
0.631974 0.786813 0.709394
0.682258 0.798387 0.720968
0.732542 0.809961 0.732542
0.782826 0.821535 0.744116
0.833110 0.833110 0.755690
0.326477 0.326477 0.558735
0.376761 0.338052 0.570310
0.427045 0.349626 0.581884
0.477329 0.361200 0.593458
0.527613 0.372774 0.605032
0.577897 0.384348 0.616606
0.628181 0.395923 0.628181
0.678465 0.407497 0.639755
0.349200 0.387910 0.581458
0.399484 0.399484 0.593032
0.449768 0.411058 0.604606
0.500052 0.422632 0.616181
0.550335 0.434206 0.627755
0.600619 0.445781 0.639329
0.650903 0.457355 0.650903
0.701187 0.468929 0.662477
0.371923 0.449342 0.604181
0.422206 0.460916 0.615755
0.472490 0.472490 0.627329
0.522774 0.484065 0.638903
0.573058 0.495639 0.650477
0.623342 0.507213 0.662052
0.673626 0.518787 0.673626
0.723910 0.530361 0.685200
0.394645 0.510774 0.626903
0.444929 0.522348 0.638477
0.495213 0.533923 0.650052
0.545497 0.545497 0.661626
0.595781 0.557071 0.673200
0.646065 0.568645 0.684774
0.696348 0.580219 0.696348
0.746632 0.591794 0.707923
0.417368 0.572206 0.649626
0.467652 0.583781 0.661200
0.517935 0.595355 0.672774
0.568219 0.606929 0.684348
0.618503 0.618503 0.695923
0.668787 0.630077 0.707497
0.719071 0.641652 0.719071
0.769355 0.653226 0.730645
0.440090 0.633639 0.672348
0.490374 0.645213 0.683923
0.540658 0.656787 0.695497
0.590942 0.668361 0.707071
0.641226 0.679935 0.718645
0.691510 0.691510 0.730219
0.741794 0.703084 0.741794
0.792077 0.714658 0.753368
0.462813 0.695071 0.695071
0.513097 0.706645 0.706645
0.563381 0.718219 0.718219
0.613665 0.729794 0.729794
0.663948 0.741368 0.741368
0.714232 0.752942 0.752942
0.764516 0.764516 0.764516
0.814800 0.776090 0.776090
0.485535 0.756503 0.717794
0.535819 0.768077 0.729368
0.586103 0.779652 0.740942
0.636387 0.791226 0.752516
0.686671 0.802800 0.764090
0.736955 0.814374 0.775665
0.787239 0.825948 0.787239
0.837523 0.837523 0.798813
0.330890 0.330890 0.601858
0.381174 0.342465 0.613432
0.431458 0.354039 0.625006
0.481742 0.365613 0.636581
0.532026 0.377187 0.648155
0.582310 0.388761 0.659729
0.632594 0.400335 0.671303
0.682877 0.411910 0.682877
0.353613 0.392323 0.624581
0.403897 0.403897 0.636155
0.454181 0.415471 0.647729
0.504465 0.427045 0.659303
0.554748 0.438619 0.670877
0.605032 0.450194 0.682452
0.655316 0.461768 0.694026
0.705600 0.473342 0.705600
0.376335 0.453755 0.647303
0.426619 0.465329 0.658877
0.476903 0.476903 0.670452
0.527187 0.488477 0.682026
0.577471 0.500052 0.693600
0.627755 0.511626 0.705174
0.678039 0.523200 0.716748
0.728323 0.534774 0.728323
0.399058 0.515187 0.670026
0.449342 0.526761 0.681600
0.499626 0.538335 0.693174
0.549910 0.549910 0.704748
0.600194 0.561484 0.716323
0.650477 0.573058 0.727897
0.700761 0.584632 0.739471
0.751045 0.596206 0.751045
0.421781 0.576619 0.692748
0.472065 0.588194 0.704323
0.522348 0.599768 0.715897
0.572632 0.611342 0.727471
0.622916 0.622916 0.739045
0.673200 0.634490 0.750619
0.723484 0.646065 0.762194
0.773768 0.657639 0.773768
0.444503 0.638052 0.715471
0.494787 0.649626 0.727045
0.545071 0.661200 0.738619
0.595355 0.672774 0.750194
0.645639 0.684348 0.761768
0.695923 0.695923 0.773342
0.746206 0.707497 0.784916
0.796490 0.719071 0.796490
0.467226 0.699484 0.738194
0.517510 0.711058 0.749768
0.567794 0.722632 0.761342
0.618077 0.734206 0.772916
0.668361 0.745781 0.784490
0.718645 0.757355 0.796065
0.768929 0.768929 0.807639
0.819213 0.780503 0.819213
0.489948 0.760916 0.760916
0.540232 0.772490 0.772490
0.590516 0.784065 0.784065
0.640800 0.795639 0.795639
0.691084 0.807213 0.807213
0.741368 0.818787 0.818787
0.791652 0.830361 0.830361
0.841935 0.841935 0.841935
