examples/graphics/lutFilterExample/bin/data/customLut.cube
TITLE "Pastel"
LUT_3D_SIZE 5
DOMAIN_MIN 0.000000 0.000000 0.000000
DOMAIN_MAX 0.903226 0.903226 0.903226
0.300000 0.300000 0.300000
0.387997 0.320255 0.320255
0.475994 0.340510 0.340510
0.563990 0.360765 0.360765
0.651987 0.381019 0.381019
0.339765 0.407506 0.339765
0.427761 0.427761 0.360019
0.515758 0.448016 0.380274
0.603755 0.468271 0.400529
0.691752 0.488526 0.420784
0.379529 0.515013 0.379529
0.467526 0.535268 0.399784
0.555523 0.555523 0.420039
0.643519 0.575777 0.440294
0.731516 0.596032 0.460548
0.419294 0.622519 0.419294
0.507290 0.642774 0.439548
0.595287 0.663029 0.459803
0.683284 0.683284 0.480058
0.771281 0.703539 0.500313
0.459058 0.730026 0.459058
0.547055 0.750281 0.479313
0.635052 0.770535 0.499568
0.723048 0.790790 0.519823
0.811045 0.811045 0.540077
0.307723 0.307723 0.375465
0.395719 0.327977 0.395719
0.483716 0.348232 0.415974
0.571713 0.368487 0.436229
0.659710 0.388742 0.456484
0.347487 0.415229 0.415229
0.435484 0.435484 0.435484
0.523481 0.455739 0.455739
0.611477 0.475994 0.475994
0.699474 0.496248 0.496248
0.387252 0.522735 0.454994
0.475248 0.542990 0.475248
0.563245 0.563245 0.495503
0.651242 0.583500 0.515758
0.739239 0.603755 0.536013
0.427016 0.630242 0.494758
0.515013 0.650497 0.515013
0.603010 0.670752 0.535268
0.691006 0.691006 0.555523
0.779003 0.711261 0.575777
0.466781 0.737748 0.534523
0.554777 0.758003 0.554777
0.642774 0.778258 0.575032
0.730771 0.798513 0.595287
0.818768 0.818768 0.615542
0.315445 0.315445 0.450929
0.403442 0.335700 0.471184
0.491439 0.355955 0.491439
0.579435 0.376210 0.511694
0.667432 0.396465 0.531948
0.355210 0.422952 0.490694
0.443206 0.443206 0.510948
0.531203 0.463461 0.531203
0.619200 0.483716 0.551458
0.707197 0.503971 0.571713
0.394974 0.530458 0.530458
0.482971 0.550713 0.550713
0.570968 0.570968 0.570968
0.658965 0.591223 0.591223
0.746961 0.611477 0.611477
0.434739 0.637965 0.570223
0.522735 0.658219 0.590477
0.610732 0.678474 0.610732
0.698729 0.698729 0.630987
0.786726 0.718984 0.651242
0.474503 0.745471 0.609987
0.562500 0.765726 0.630242
0.650497 0.785981 0.650497
0.738494 0.806235 0.670752
0.826490 0.826490 0.691006
0.323168 0.323168 0.526394
0.411165 0.343423 0.546648
0.499161 0.363677 0.566903
0.587158 0.383932 0.587158
0.675155 0.404187 0.607413
0.362932 0.430674 0.566158
0.450929 0.450929 0.586413
0.538926 0.471184 0.606668
0.626923 0.491439 0.626923
0.714919 0.511694 0.647177
0.402697 0.538181 0.605923
0.490694 0.558435 0.626177
0.578690 0.578690 0.646432
0.666687 0.598945 0.666687
0.754684 0.619200 0.686942
0.442461 0.645687 0.645687
0.530458 0.665942 0.665942
0.618455 0.686197 0.686197
0.706452 0.706452 0.706452
0.794448 0.726706 0.726706
0.482226 0.753194 0.685452
0.570223 0.773448 0.705706
0.658219 0.793703 0.725961
0.746216 0.813958 0.746216
0.834213 0.834213 0.766471
0.330890 0.330890 0.601858
0.418887 0.351145 0.622113
0.506884 0.371400 0.642368
0.594881 0.391655 0.662623
0.682877 0.411910 0.682877
0.370655 0.438397 0.641623
0.458652 0.458652 0.661877
0.546648 0.478906 0.682132
0.634645 0.499161 0.702387
0.722642 0.519416 0.722642
0.410419 0.545903 0.681387
0.498416 0.566158 0.701642
0.586413 0.586413 0.721897
0.674410 0.606668 0.742152
0.762406 0.626923 0.762406
0.450184 0.653410 0.721152
0.538181 0.673665 0.741406
0.626177 0.693919 0.761661
0.714174 0.714174 0.781916
0.802171 0.734429 0.802171
0.489948 0.760916 0.760916
0.577945 0.781171 0.781171
0.665942 0.801426 0.801426
0.753939 0.821681 0.821681
0.841935 0.841935 0.841935
