examples/graphics/lutFilterExample/bin/data/customLut.cube
TITLE "Pastel"
LUT_3D_SIZE 32
0.300000 0.300000 0.300000
0.312571 0.302894 0.302894
0.325142 0.305787 0.305787
0.337713 0.308681 0.308681
0.350284 0.311574 0.311574
0.362855 0.314468 0.314468
0.375426 0.317361 0.317361
0.387997 0.320255 0.320255
0.400568 0.323148 0.323148
0.413139 0.326042 0.326042
0.425710 0.328935 0.328935
0.438281 0.331829 0.331829
0.450852 0.334723 0.334723
0.463423 0.337616 0.337616
0.475994 0.340510 0.340510
0.488565 0.343403 0.343403
0.501135 0.346297 0.346297
0.513706 0.349190 0.349190
0.526277 0.352084 0.352084
0.538848 0.354977 0.354977
0.551419 0.357871 0.357871
0.563990 0.360765 0.360765
0.576561 0.363658 0.363658
0.589132 0.366552 0.366552
0.601703 0.369445 0.369445
0.614274 0.372339 0.372339
0.626845 0.375232 0.375232
0.639416 0.378126 0.378126
0.651987 0.381019 0.381019
0.664558 0.383913 0.383913
0.677129 0.386806 0.386806
0.689700 0.389700 0.389700
0.305681 0.315358 0.305681
0.318252 0.318252 0.308574
0.330823 0.321145 0.311468
0.343394 0.324039 0.314361
0.355965 0.326932 0.317255
0.368535 0.329826 0.320148
0.381106 0.332719 0.323042
0.393677 0.335613 0.325935
0.406248 0.338506 0.328829
0.418819 0.341400 0.331723
0.431390 0.344294 0.334616
0.443961 0.347187 0.337510
0.456532 0.350081 0.340403
0.469103 0.352974 0.343297
0.481674 0.355868 0.346190
0.494245 0.358761 0.349084
0.506816 0.361655 0.351977
0.519387 0.364548 0.354871
0.531958 0.367442 0.357765
0.544529 0.370335 0.360658
0.557100 0.373229 0.363552
0.569671 0.376123 0.366445
0.582242 0.379016 0.369339
0.594813 0.381910 0.372232
0.607384 0.384803 0.375126
0.619955 0.387697 0.378019
0.632526 0.390590 0.380913
0.645097 0.393484 0.383806
0.657668 0.396377 0.386700
0.670239 0.399271 0.389594
0.682810 0.402165 0.392487
0.695381 0.405058 0.395381
0.311361 0.330716 0.311361
0.323932 0.333610 0.314255
0.336503 0.336503 0.317148
0.349074 0.339397 0.320042
0.361645 0.342290 0.322935
0.374216 0.345184 0.325829
0.386787 0.348077 0.328723
0.399358 0.350971 0.331616
0.411929 0.353865 0.334510
0.424500 0.356758 0.337403
0.437071 0.359652 0.340297
0.449642 0.362545 0.343190
0.462213 0.365439 0.346084
0.474784 0.368332 0.348977
0.487355 0.371226 0.351871
0.499926 0.374119 0.354765
0.512497 0.377013 0.357658
0.525068 0.379906 0.360552
0.537639 0.382800 0.363445
0.550210 0.385694 0.366339
0.562781 0.388587 0.369232
0.575352 0.391481 0.372126
0.587923 0.394374 0.375019
0.600494 0.397268 0.377913
0.613065 0.400161 0.380806
0.625635 0.403055 0.383700
0.638206 0.405948 0.386594
0.650777 0.408842 0.389487
0.663348 0.411735 0.392381
0.675919 0.414629 0.395274
0.688490 0.417523 0.398168
0.701061 0.420416 0.401061
0.317042 0.346074 0.317042
0.329613 0.348968 0.319935
0.342184 0.351861 0.322829
0.354755 0.354755 0.325723
0.367326 0.357648 0.328616
0.379897 0.360542 0.331510
0.392468 0.363435 0.334403
0.405039 0.366329 0.337297
0.417610 0.369223 0.340190
0.430181 0.372116 0.343084
0.442752 0.375010 0.345977
0.455323 0.377903 0.348871
0.467894 0.380797 0.351765
0.480465 0.383690 0.354658
0.493035 0.386584 0.357552
0.505606 0.389477 0.360445
0.518177 0.392371 0.363339
0.530748 0.395265 0.366232
0.543319 0.398158 0.369126
0.555890 0.401052 0.372019
0.568461 0.403945 0.374913
0.581032 0.406839 0.377806
0.593603 0.409732 0.380700
0.606174 0.412626 0.383594
0.618745 0.415519 0.386487
0.631316 0.418413 0.389381
0.643887 0.421306 0.392274
0.656458 0.424200 0.395168
0.669029 0.427094 0.398061
0.681600 0.429987 0.400955
0.694171 0.432881 0.403848
0.706742 0.435774 0.406742
0.322723 0.361432 0.322723
0.335294 0.364326 0.325616
0.347865 0.367219 0.328510
0.360435 0.370113 0.331403
0.373006 0.373006 0.334297
0.385577 0.375900 0.337190
0.398148 0.378794 0.340084
0.410719 0.381687 0.342977
0.423290 0.384581 0.345871
0.435861 0.387474 0.348765
0.448432 0.390368 0.351658
0.461003 0.393261 0.354552
0.473574 0.396155 0.357445
0.486145 0.399048 0.360339
0.498716 0.401942 0.363232
0.511287 0.404835 0.366126
0.523858 0.407729 0.369019
0.536429 0.410623 0.371913
0.549000 0.413516 0.374806
0.561571 0.416410 0.377700
0.574142 0.419303 0.380594
0.586713 0.422197 0.383487
0.599284 0.425090 0.386381
0.611855 0.427984 0.389274
0.624426 0.430877 0.392168
0.636997 0.433771 0.395061
0.649568 0.436665 0.397955
0.662139 0.439558 0.400848
0.674710 0.442452 0.403742
0.687281 0.445345 0.406635
0.699852 0.448239 0.409529
0.712423 0.451132 0.412423
0.328403 0.376790 0.328403
0.340974 0.379684 0.331297
0.353545 0.382577 0.334190
0.366116 0.385471 0.337084
0.378687 0.388365 0.339977
0.391258 0.391258 0.342871
0.403829 0.394152 0.345765
0.416400 0.397045 0.348658
0.428971 0.399939 0.351552
0.441542 0.402832 0.354445
0.454113 0.405726 0.357339
0.466684 0.408619 0.360232
0.479255 0.411513 0.363126
0.491826 0.414406 0.366019
0.504397 0.417300 0.368913
0.516968 0.420194 0.371806
0.529539 0.423087 0.374700
0.542110 0.425981 0.377594
0.554681 0.428874 0.380487
0.567252 0.431768 0.383381
0.579823 0.434661 0.386274
0.592394 0.437555 0.389168
0.604965 0.440448 0.392061
0.617535 0.443342 0.394955
0.630106 0.446235 0.397848
0.642677 0.449129 0.400742
0.655248 0.452023 0.403635
0.667819 0.454916 0.406529
0.680390 0.457810 0.409423
0.692961 0.460703 0.412316
0.705532 0.463597 0.415210
0.718103 0.466490 0.418103
0.334084 0.392148 0.334084
0.346655 0.395042 0.336977
0.359226 0.397935 0.339871
0.371797 0.400829 0.342765
0.384368 0.403723 0.345658
0.396939 0.406616 0.348552
0.409510 0.409510 0.351445
0.422081 0.412403 0.354339
0.434652 0.415297 0.357232
0.447223 0.418190 0.360126
0.459794 0.421084 0.363019
0.472365 0.423977 0.365913
0.484935 0.426871 0.368806
0.497506 0.429765 0.371700
0.510077 0.432658 0.374594
0.522648 0.435552 0.377487
0.535219 0.438445 0.380381
0.547790 0.441339 0.383274
0.560361 0.444232 0.386168
0.572932 0.447126 0.389061
0.585503 0.450019 0.391955
0.598074 0.452913 0.394848
0.610645 0.455806 0.397742
0.623216 0.458700 0.400635
0.635787 0.461594 0.403529
0.648358 0.464487 0.406423
0.660929 0.467381 0.409316
0.673500 0.470274 0.412210
0.686071 0.473168 0.415103
0.698642 0.476061 0.417997
0.711213 0.478955 0.420890
0.723784 0.481848 0.423784
0.339765 0.407506 0.339765
0.352335 0.410400 0.342658
0.364906 0.413294 0.345552
0.377477 0.416187 0.348445
0.390048 0.419081 0.351339
0.402619 0.421974 0.354232
0.415190 0.424868 0.357126
0.427761 0.427761 0.360019
0.440332 0.430655 0.362913
0.452903 0.433548 0.365806
0.465474 0.436442 0.368700
0.478045 0.439335 0.371594
0.490616 0.442229 0.374487
0.503187 0.445123 0.377381
0.515758 0.448016 0.380274
0.528329 0.450910 0.383168
0.540900 0.453803 0.386061
0.553471 0.456697 0.388955
0.566042 0.459590 0.391848
0.578613 0.462484 0.394742
0.591184 0.465377 0.397635
0.603755 0.468271 0.400529
0.616326 0.471165 0.403423
0.628897 0.474058 0.406316
0.641468 0.476952 0.409210
0.654039 0.479845 0.412103
0.666610 0.482739 0.414997
0.679181 0.485632 0.417890
0.691752 0.488526 0.420784
0.704323 0.491419 0.423677
0.716894 0.494313 0.426571
0.729465 0.497206 0.429465
0.345445 0.422865 0.345445
0.358016 0.425758 0.348339
0.370587 0.428652 0.351232
0.383158 0.431545 0.354126
0.395729 0.434439 0.357019
0.408300 0.437332 0.359913
0.420871 0.440226 0.362806
0.433442 0.443119 0.365700
0.446013 0.446013 0.368594
0.458584 0.448906 0.371487
0.471155 0.451800 0.374381
0.483726 0.454694 0.377274
0.496297 0.457587 0.380168
0.508868 0.460481 0.383061
0.521439 0.463374 0.385955
0.534010 0.466268 0.388848
0.546581 0.469161 0.391742
0.559152 0.472055 0.394635
0.571723 0.474948 0.397529
0.584294 0.477842 0.400423
0.596865 0.480735 0.403316
0.609435 0.483629 0.406210
0.622006 0.486523 0.409103
0.634577 0.489416 0.411997
0.647148 0.492310 0.414890
0.659719 0.495203 0.417784
0.672290 0.498097 0.420677
0.684861 0.500990 0.423571
0.697432 0.503884 0.426465
0.710003 0.506777 0.429358
0.722574 0.509671 0.432252
0.735145 0.512565 0.435145
0.351126 0.438223 0.351126
0.363697 0.441116 0.354019
0.376268 0.444010 0.356913
0.388839 0.446903 0.359806
0.401410 0.449797 0.362700
0.413981 0.452690 0.365594
0.426552 0.455584 0.368487
0.439123 0.458477 0.371381
0.451694 0.461371 0.374274
0.464265 0.464265 0.377168
0.476835 0.467158 0.380061
0.489406 0.470052 0.382955
0.501977 0.472945 0.385848
0.514548 0.475839 0.388742
0.527119 0.478732 0.391635
0.539690 0.481626 0.394529
0.552261 0.484519 0.397423
0.564832 0.487413 0.400316
0.577403 0.490306 0.403210
0.589974 0.493200 0.406103
0.602545 0.496094 0.408997
0.615116 0.498987 0.411890
0.627687 0.501881 0.414784
0.640258 0.504774 0.417677
0.652829 0.507668 0.420571
0.665400 0.510561 0.423465
0.677971 0.513455 0.426358
0.690542 0.516348 0.429252
0.703113 0.519242 0.432145
0.715684 0.522135 0.435039
0.728255 0.525029 0.437932
0.740826 0.527923 0.440826
0.356806 0.453581 0.356806
0.369377 0.456474 0.359700
0.381948 0.459368 0.362594
0.394519 0.462261 0.365487
0.407090 0.465155 0.368381
0.419661 0.468048 0.371274
0.432232 0.470942 0.374168
0.444803 0.473835 0.377061
0.457374 0.476729 0.379955
0.469945 0.479623 0.382848
0.482516 0.482516 0.385742
0.495087 0.485410 0.388635
0.507658 0.488303 0.391529
0.520229 0.491197 0.394423
0.532800 0.494090 0.397316
0.545371 0.496984 0.400210
0.557942 0.499877 0.403103
0.570513 0.502771 0.405997
0.583084 0.505665 0.408890
0.595655 0.508558 0.411784
0.608226 0.511452 0.414677
0.620797 0.514345 0.417571
0.633368 0.517239 0.420465
0.645939 0.520132 0.423358
0.658510 0.523026 0.426252
0.671081 0.525919 0.429145
0.683652 0.528813 0.432039
0.696223 0.531706 0.434932
0.708794 0.534600 0.437826
0.721365 0.537494 0.440719
0.733935 0.540387 0.443613
0.746506 0.543281 0.446506
0.362487 0.468939 0.362487
0.375058 0.471832 0.365381
0.387629 0.474726 0.368274
0.400200 0.477619 0.371168
0.412771 0.480513 0.374061
0.425342 0.483406 0.376955
0.437913 0.486300 0.379848
0.450484 0.489194 0.382742
0.463055 0.492087 0.385635
0.475626 0.494981 0.388529
0.488197 0.497874 0.391423
0.500768 0.500768 0.394316
0.513339 0.503661 0.397210
0.525910 0.506555 0.400103
0.538481 0.509448 0.402997
0.551052 0.512342 0.405890
0.563623 0.515235 0.408784
0.576194 0.518129 0.411677
0.588765 0.521023 0.414571
0.601335 0.523916 0.417465
0.613906 0.526810 0.420358
0.626477 0.529703 0.423252
0.639048 0.532597 0.426145
0.651619 0.535490 0.429039
0.664190 0.538384 0.431932
0.676761 0.541277 0.434826
0.689332 0.544171 0.437719
0.701903 0.547065 0.440613
0.714474 0.549958 0.443506
0.727045 0.552852 0.446400
0.739616 0.555745 0.449294
0.752187 0.558639 0.452187
0.368168 0.484297 0.368168
0.380739 0.487190 0.371061
0.393310 0.490084 0.373955
0.405881 0.492977 0.376848
0.418452 0.495871 0.379742
0.431023 0.498765 0.382635
0.443594 0.501658 0.385529
0.456165 0.504552 0.388423
0.468735 0.507445 0.391316
0.481306 0.510339 0.394210
0.493877 0.513232 0.397103
0.506448 0.516126 0.399997
0.519019 0.519019 0.402890
0.531590 0.521913 0.405784
0.544161 0.524806 0.408677
0.556732 0.527700 0.411571
0.569303 0.530594 0.414465
0.581874 0.533487 0.417358
0.594445 0.536381 0.420252
0.607016 0.539274 0.423145
0.619587 0.542168 0.426039
0.632158 0.545061 0.428932
0.644729 0.547955 0.431826
0.657300 0.550848 0.434719
0.669871 0.553742 0.437613
0.682442 0.556635 0.440506
0.695013 0.559529 0.443400
0.707584 0.562423 0.446294
0.720155 0.565316 0.449187
0.732726 0.568210 0.452081
0.745297 0.571103 0.454974
0.757868 0.573997 0.457868
0.373848 0.499655 0.373848
0.386419 0.502548 0.376742
0.398990 0.505442 0.379635
0.411561 0.508335 0.382529
0.424132 0.511229 0.385423
0.436703 0.514123 0.388316
0.449274 0.517016 0.391210
0.461845 0.519910 0.394103
0.474416 0.522803 0.396997
0.486987 0.525697 0.399890
0.499558 0.528590 0.402784
0.512129 0.531484 0.405677
0.524700 0.534377 0.408571
0.537271 0.537271 0.411465
0.549842 0.540165 0.414358
0.562413 0.543058 0.417252
0.574984 0.545952 0.420145
0.587555 0.548845 0.423039
0.600126 0.551739 0.425932
0.612697 0.554632 0.428826
0.625268 0.557526 0.431719
0.637839 0.560419 0.434613
0.650410 0.563313 0.437506
0.662981 0.566206 0.440400
0.675552 0.569100 0.443294
0.688123 0.571994 0.446187
0.700694 0.574887 0.449081
0.713265 0.577781 0.451974
0.725835 0.580674 0.454868
0.738406 0.583568 0.457761
0.750977 0.586461 0.460655
0.763548 0.589355 0.463548
0.379529 0.515013 0.379529
0.392100 0.517906 0.382423
0.404671 0.520800 0.385316
0.417242 0.523694 0.388210
0.429813 0.526587 0.391103
0.442384 0.529481 0.393997
0.454955 0.532374 0.396890
0.467526 0.535268 0.399784
0.480097 0.538161 0.402677
0.492668 0.541055 0.405571
0.505239 0.543948 0.408465
0.517810 0.546842 0.411358
0.530381 0.549735 0.414252
0.542952 0.552629 0.417145
0.555523 0.555523 0.420039
0.568094 0.558416 0.422932
0.580665 0.561310 0.425826
0.593235 0.564203 0.428719
0.605806 0.567097 0.431613
0.618377 0.569990 0.434506
0.630948 0.572884 0.437400
0.643519 0.575777 0.440294
0.656090 0.578671 0.443187
0.668661 0.581565 0.446081
0.681232 0.584458 0.448974
0.693803 0.587352 0.451868
0.706374 0.590245 0.454761
0.718945 0.593139 0.457655
0.731516 0.596032 0.460548
0.744087 0.598926 0.463442
0.756658 0.601819 0.466335
0.769229 0.604713 0.469229
0.385210 0.530371 0.385210
0.397781 0.533265 0.388103
0.410352 0.536158 0.390997
0.422923 0.539052 0.393890
0.435494 0.541945 0.396784
0.448065 0.544839 0.399677
0.460635 0.547732 0.402571
0.473206 0.550626 0.405465
0.485777 0.553519 0.408358
0.498348 0.556413 0.411252
0.510919 0.559306 0.414145
0.523490 0.562200 0.417039
0.536061 0.565094 0.419932
0.548632 0.567987 0.422826
0.561203 0.570881 0.425719
0.573774 0.573774 0.428613
0.586345 0.576668 0.431506
0.598916 0.579561 0.434400
0.611487 0.582455 0.437294
0.624058 0.585348 0.440187
0.636629 0.588242 0.443081
0.649200 0.591135 0.445974
0.661771 0.594029 0.448868
0.674342 0.596923 0.451761
0.686913 0.599816 0.454655
0.699484 0.602710 0.457548
0.712055 0.605603 0.460442
0.724626 0.608497 0.463335
0.737197 0.611390 0.466229
0.749768 0.614284 0.469123
0.762339 0.617177 0.472016
0.774910 0.620071 0.474910
0.390890 0.545729 0.390890
0.403461 0.548623 0.393784
0.416032 0.551516 0.396677
0.428603 0.554410 0.399571
0.441174 0.557303 0.402465
0.453745 0.560197 0.405358
0.466316 0.563090 0.408252
0.478887 0.565984 0.411145
0.491458 0.568877 0.414039
0.504029 0.571771 0.416932
0.516600 0.574665 0.419826
0.529171 0.577558 0.422719
0.541742 0.580452 0.425613
0.554313 0.583345 0.428506
0.566884 0.586239 0.431400
0.579455 0.589132 0.434294
0.592026 0.592026 0.437187
0.604597 0.594919 0.440081
0.617168 0.597813 0.442974
0.629739 0.600706 0.445868
0.642310 0.603600 0.448761
0.654881 0.606494 0.451655
0.667452 0.609387 0.454548
0.680023 0.612281 0.457442
0.692594 0.615174 0.460335
0.705165 0.618068 0.463229
0.717735 0.620961 0.466123
0.730306 0.623855 0.469016
0.742877 0.626748 0.471910
0.755448 0.629642 0.474803
0.768019 0.632535 0.477697
0.780590 0.635429 0.480590
0.396571 0.561087 0.396571
0.409142 0.563981 0.399465
0.421713 0.566874 0.402358
0.434284 0.569768 0.405252
0.446855 0.572661 0.408145
0.459426 0.575555 0.411039
0.471997 0.578448 0.413932
0.484568 0.581342 0.416826
0.497139 0.584235 0.419719
0.509710 0.587129 0.422613
0.522281 0.590023 0.425506
0.534852 0.592916 0.428400
0.547423 0.595810 0.431294
0.559994 0.598703 0.434187
0.572565 0.601597 0.437081
0.585135 0.604490 0.439974
0.597706 0.607384 0.442868
0.610277 0.610277 0.445761
0.622848 0.613171 0.448655
0.635419 0.616065 0.451548
0.647990 0.618958 0.454442
0.660561 0.621852 0.457335
0.673132 0.624745 0.460229
0.685703 0.627639 0.463123
0.698274 0.630532 0.466016
0.710845 0.633426 0.468910
0.723416 0.636319 0.471803
0.735987 0.639213 0.474697
0.748558 0.642106 0.477590
0.761129 0.645000 0.480484
0.773700 0.647894 0.483377
0.786271 0.650787 0.486271
0.402252 0.576445 0.402252
0.414823 0.579339 0.405145
0.427394 0.582232 0.408039
0.439965 0.585126 0.410932
0.452535 0.588019 0.413826
0.465106 0.590913 0.416719
0.477677 0.593806 0.419613
0.490248 0.596700 0.422506
0.502819 0.599594 0.425400
0.515390 0.602487 0.428294
0.527961 0.605381 0.431187
0.540532 0.608274 0.434081
0.553103 0.611168 0.436974
0.565674 0.614061 0.439868
0.578245 0.616955 0.442761
0.590816 0.619848 0.445655
0.603387 0.622742 0.448548
0.615958 0.625635 0.451442
0.628529 0.628529 0.454335
0.641100 0.631423 0.457229
0.653671 0.634316 0.460123
0.666242 0.637210 0.463016
0.678813 0.640103 0.465910
0.691384 0.642997 0.468803
0.703955 0.645890 0.471697
0.716526 0.648784 0.474590
0.729097 0.651677 0.477484
0.741668 0.654571 0.480377
0.754239 0.657465 0.483271
0.766810 0.660358 0.486165
0.779381 0.663252 0.489058
0.791952 0.666145 0.491952
0.407932 0.591803 0.407932
0.420503 0.594697 0.410826
0.433074 0.597590 0.413719
0.445645 0.600484 0.416613
0.458216 0.603377 0.419506
0.470787 0.606271 0.422400
0.483358 0.609165 0.425294
0.495929 0.612058 0.428187
0.508500 0.614952 0.431081
0.521071 0.617845 0.433974
0.533642 0.620739 0.436868
0.546213 0.623632 0.439761
0.558784 0.626526 0.442655
0.571355 0.629419 0.445548
0.583926 0.632313 0.448442
0.596497 0.635206 0.451335
0.609068 0.638100 0.454229
0.621639 0.640994 0.457123
0.634210 0.643887 0.460016
0.646781 0.646781 0.462910
0.659352 0.649674 0.465803
0.671923 0.652568 0.468697
0.684494 0.655461 0.471590
0.697065 0.658355 0.474484
0.709635 0.661248 0.477377
0.722206 0.664142 0.480271
0.734777 0.667035 0.483165
0.747348 0.669929 0.486058
0.759919 0.672823 0.488952
0.772490 0.675716 0.491845
0.785061 0.678610 0.494739
0.797632 0.681503 0.497632
0.413613 0.607161 0.413613
0.426184 0.610055 0.416506
0.438755 0.612948 0.419400
0.451326 0.615842 0.422294
0.463897 0.618735 0.425187
0.476468 0.621629 0.428081
0.489039 0.624523 0.430974
0.501610 0.627416 0.433868
0.514181 0.630310 0.436761
0.526752 0.633203 0.439655
0.539323 0.636097 0.442548
0.551894 0.638990 0.445442
0.564465 0.641884 0.448335
0.577035 0.644777 0.451229
0.589606 0.647671 0.454123
0.602177 0.650565 0.457016
0.614748 0.653458 0.459910
0.627319 0.656352 0.462803
0.639890 0.659245 0.465697
0.652461 0.662139 0.468590
0.665032 0.665032 0.471484
0.677603 0.667926 0.474377
0.690174 0.670819 0.477271
0.702745 0.673713 0.480165
0.715316 0.676606 0.483058
0.727887 0.679500 0.485952
0.740458 0.682394 0.488845
0.753029 0.685287 0.491739
0.765600 0.688181 0.494632
0.778171 0.691074 0.497526
0.790742 0.693968 0.500419
0.803313 0.696861 0.503313
0.419294 0.622519 0.419294
0.431865 0.625413 0.422187
0.444435 0.628306 0.425081
0.457006 0.631200 0.427974
0.469577 0.634094 0.430868
0.482148 0.636987 0.433761
0.494719 0.639881 0.436655
0.507290 0.642774 0.439548
0.519861 0.645668 0.442442
0.532432 0.648561 0.445335
0.545003 0.651455 0.448229
0.557574 0.654348 0.451123
0.570145 0.657242 0.454016
0.582716 0.660135 0.456910
0.595287 0.663029 0.459803
0.607858 0.665923 0.462697
0.620429 0.668816 0.465590
0.633000 0.671710 0.468484
0.645571 0.674603 0.471377
0.658142 0.677497 0.474271
0.670713 0.680390 0.477165
0.683284 0.683284 0.480058
0.695855 0.686177 0.482952
0.708426 0.689071 0.485845
0.720997 0.691965 0.488739
0.733568 0.694858 0.491632
0.746139 0.697752 0.494526
0.758710 0.700645 0.497419
0.771281 0.703539 0.500313
0.783852 0.706432 0.503206
0.796423 0.709326 0.506100
0.808994 0.712219 0.508994
0.424974 0.637877 0.424974
0.437545 0.640771 0.427868
0.450116 0.643665 0.430761
0.462687 0.646558 0.433655
0.475258 0.649452 0.436548
0.487829 0.652345 0.439442
0.500400 0.655239 0.442335
0.512971 0.658132 0.445229
0.525542 0.661026 0.448123
0.538113 0.663919 0.451016
0.550684 0.666813 0.453910
0.563255 0.669706 0.456803
0.575826 0.672600 0.459697
0.588397 0.675494 0.462590
0.600968 0.678387 0.465484
0.613539 0.681281 0.468377
0.626110 0.684174 0.471271
0.638681 0.687068 0.474165
0.651252 0.689961 0.477058
0.663823 0.692855 0.479952
0.676394 0.695748 0.482845
0.688965 0.698642 0.485739
0.701535 0.701535 0.488632
0.714106 0.704429 0.491526
0.726677 0.707323 0.494419
0.739248 0.710216 0.497313
0.751819 0.713110 0.500206
0.764390 0.716003 0.503100
0.776961 0.718897 0.505994
0.789532 0.721790 0.508887
0.802103 0.724684 0.511781
0.814674 0.727577 0.514674
0.430655 0.653235 0.430655
0.443226 0.656129 0.433548
0.455797 0.659023 0.436442
0.468368 0.661916 0.439335
0.480939 0.664810 0.442229
0.493510 0.667703 0.445123
0.506081 0.670597 0.448016
0.518652 0.673490 0.450910
0.531223 0.676384 0.453803
0.543794 0.679277 0.456697
0.556365 0.682171 0.459590
0.568935 0.685065 0.462484
0.581506 0.687958 0.465377
0.594077 0.690852 0.468271
0.606648 0.693745 0.471165
0.619219 0.696639 0.474058
0.631790 0.699532 0.476952
0.644361 0.702426 0.479845
0.656932 0.705319 0.482739
0.669503 0.708213 0.485632
0.682074 0.711106 0.488526
0.694645 0.714000 0.491419
0.707216 0.716894 0.494313
0.719787 0.719787 0.497206
0.732358 0.722681 0.500100
0.744929 0.725574 0.502994
0.757500 0.728468 0.505887
0.770071 0.731361 0.508781
0.782642 0.734255 0.511674
0.795213 0.737148 0.514568
0.807784 0.740042 0.517461
0.820355 0.742935 0.520355
0.436335 0.668594 0.436335
0.448906 0.671487 0.439229
0.461477 0.674381 0.442123
0.474048 0.677274 0.445016
0.486619 0.680168 0.447910
0.499190 0.683061 0.450803
0.511761 0.685955 0.453697
0.524332 0.688848 0.456590
0.536903 0.691742 0.459484
0.549474 0.694635 0.462377
0.562045 0.697529 0.465271
0.574616 0.700423 0.468165
0.587187 0.703316 0.471058
0.599758 0.706210 0.473952
0.612329 0.709103 0.476845
0.624900 0.711997 0.479739
0.637471 0.714890 0.482632
0.650042 0.717784 0.485526
0.662613 0.720677 0.488419
0.675184 0.723571 0.491313
0.687755 0.726465 0.494206
0.700326 0.729358 0.497100
0.712897 0.732252 0.499994
0.725468 0.735145 0.502887
0.738039 0.738039 0.505781
0.750610 0.740932 0.508674
0.763181 0.743826 0.511568
0.775752 0.746719 0.514461
0.788323 0.749613 0.517355
0.800894 0.752506 0.520248
0.813465 0.755400 0.523142
0.826035 0.758294 0.526035
0.442016 0.683952 0.442016
0.454587 0.686845 0.444910
0.467158 0.689739 0.447803
0.479729 0.692632 0.450697
0.492300 0.695526 0.453590
0.504871 0.698419 0.456484
0.517442 0.701313 0.459377
0.530013 0.704206 0.462271
0.542584 0.707100 0.465165
0.555155 0.709994 0.468058
0.567726 0.712887 0.470952
0.580297 0.715781 0.473845
0.592868 0.718674 0.476739
0.605439 0.721568 0.479632
0.618010 0.724461 0.482526
0.630581 0.727355 0.485419
0.643152 0.730248 0.488313
0.655723 0.733142 0.491206
0.668294 0.736035 0.494100
0.680865 0.738929 0.496994
0.693435 0.741823 0.499887
0.706006 0.744716 0.502781
0.718577 0.747610 0.505674
0.731148 0.750503 0.508568
0.743719 0.753397 0.511461
0.756290 0.756290 0.514355
0.768861 0.759184 0.517248
0.781432 0.762077 0.520142
0.794003 0.764971 0.523035
0.806574 0.767865 0.525929
0.819145 0.770758 0.528823
0.831716 0.773652 0.531716
0.447697 0.699310 0.447697
0.460268 0.702203 0.450590
0.472839 0.705097 0.453484
0.485410 0.707990 0.456377
0.497981 0.710884 0.459271
0.510552 0.713777 0.462165
0.523123 0.716671 0.465058
0.535694 0.719565 0.467952
0.548265 0.722458 0.470845
0.560835 0.725352 0.473739
0.573406 0.728245 0.476632
0.585977 0.731139 0.479526
0.598548 0.734032 0.482419
0.611119 0.736926 0.485313
0.623690 0.739819 0.488206
0.636261 0.742713 0.491100
0.648832 0.745606 0.493994
0.661403 0.748500 0.496887
0.673974 0.751394 0.499781
0.686545 0.754287 0.502674
0.699116 0.757181 0.505568
0.711687 0.760074 0.508461
0.724258 0.762968 0.511355
0.736829 0.765861 0.514248
0.749400 0.768755 0.517142
0.761971 0.771648 0.520035
0.774542 0.774542 0.522929
0.787113 0.777435 0.525823
0.799684 0.780329 0.528716
0.812255 0.783223 0.531610
0.824826 0.786116 0.534503
0.837397 0.789010 0.537397
0.453377 0.714668 0.453377
0.465948 0.717561 0.456271
0.478519 0.720455 0.459165
0.491090 0.723348 0.462058
0.503661 0.726242 0.464952
0.516232 0.729135 0.467845
0.528803 0.732029 0.470739
0.541374 0.734923 0.473632
0.553945 0.737816 0.476526
0.566516 0.740710 0.479419
0.579087 0.743603 0.482313
0.591658 0.746497 0.485206
0.604229 0.749390 0.488100
0.616800 0.752284 0.490994
0.629371 0.755177 0.493887
0.641942 0.758071 0.496781
0.654513 0.760965 0.499674
0.667084 0.763858 0.502568
0.679655 0.766752 0.505461
0.692226 0.769645 0.508355
0.704797 0.772539 0.511248
0.717368 0.775432 0.514142
0.729939 0.778326 0.517035
